storage/app/icons/phosphoricons/light/mouse-left-click-light.svg

<svg xmlns="http://www.w3.org/2000/svg" fill="currentColor" viewBox="0 0 256 256"><path d="M144 18h-32a62.07 62.07 0 0 0-62 62v96a62.07 62.07 0 0 0 62 62h32a62.07 62.07 0 0 0 62-62V80a62.07 62.07 0 0 0-62-62m50 62v26h-60V30h10a50.06 50.06 0 0 1 50 50m-72-50v35.51L91.09 34.6A49.7 49.7 0 0 1 112 30ZM80.62 41.11 122 82.49V106h-7.51L66.9 58.42a50.3 50.3 0 0 1 13.72-17.31M62 80a50 50 0 0 1 .78-8.73L97.51 106H62Zm82 146h-32a50.06 50.06 0 0 1-50-50v-58h132v58a50.06 50.06 0 0 1-50 50"/></svg>

<svg xmlns="http://www.w3.org/2000/svg" viewBox="0 0 256 256" fill="currentColor"><path d="M144,18H112A62.07,62.07,0,0,0,50,80v96a62.07,62.07,0,0,0,62,62h32a62.07,62.07,0,0,0,62-62V80A62.07,62.07,0,0,0,144,18Zm50,62v26H134V30h10A50.06,50.06,0,0,1,194,80ZM122,30V65.51L91.09,34.6A49.74,49.74,0,0,1,112,30ZM80.62,41.11,122,82.49V106h-7.51L66.9,58.42A50.3,50.3,0,0,1,80.62,41.11ZM62,80a50.17,50.17,0,0,1,.78-8.73L97.51,106H62Zm82,146H112a50.06,50.06,0,0,1-50-50V118H194v58A50.06,50.06,0,0,1,144,226Z"/></svg>
